X:1
T:James Gibb editions
T:Tout au rebours - Maillard
T:#
%%score 1 2 3 4
L:1/8
Q:1/4=120
M:4/4
K:Bb
V:1 treble nm="Soprano" snm="S"
V:2 treble nm="Alto I" snm="A I"
V:3 treble nm="Alto II" snm="A II"
V:4 treble-8 nm="Tenor" snm="T"
V:1
"^Tout au rebours""^Jean Maillard\n(1515-70)" z4 (B4- | B2 c2) d2 e2 | f4 z2 (f2- | fedc) B2 B2 | %4
w: Tout|* * au re-|bours de|* * * * mon af-|
[M:4/4] (A2 B4 A2) | B4 z4 | z4 B4 | B2 B2 (d3 c | B2 A2 B2 B2 | f6 e2 | d2 c2 B4 | z2 f2 e2 d2 | %12
w: fai\- * *|re,|comme|il ap- pert *|* par mes a-|mours, comme|il ap- pert,|comme il ap-|
 c2 B2 A2 A2 | B4 z2 F2 | F2 G2 F4- | F2 B2 z2 f2 | f2 e2 f4 | d8 | z2 F2 F2 B2 | F6 B2 | %20
w: pert par mes a-|mours. Quand|cui- de chan\-|* ter, quand|cui- de chan-|ter,|quand cui- de|chan- ter|
 d3 c B2 A2) | B4 z4 | B6 c2 | d2 e2 f4 | z2 (f3 ed)c | B2 B2 A2 B2- | B2 A2 B4 | z8 | B6 c2 | %29
w: me faut tai\- *|re.|Ain- si|mène en tout,|ain\- * * si|mène en tout au|* re- bours,||ain- si|
 d2 e2 f4 | z2 (f3 ed)c | B2[Q:1/4=118] B2[Q:1/4=115] A2[Q:1/4=113] B2- | %32
w: mène en tout,|ain\- * * si|mène en tout au|
[Q:1/4=110] B2[Q:1/4=108] A2[Q:1/4=104] B4- |[Q:1/4=102] B8 |] %34
w: * re- bours.||
V:2
 (F6 E2) | D2 C2 B,4 | z2 (B,3 CDE) | F2 F2 (G2 F2- |[M:4/4] F2 G2) F4 | z8 | F4 F2 F2 | %7
w: Tout *|au re- bours|de * * *|mon af- fai\- *|* * re,||Comme il ap-|
 (D3 E F2) G2 | F2 F2 B,4- | B,2 C2 D2 E2 | F4 z2 B,2 | C2 D2 E2 F2 | G2 G2 F4 | z2 B2 B2 A2 | %14
w: pert * * par|mes a- mours,|* comme il ap-|pert, comme|il ap- pert par|mes a- mours.|Quand cui- de|
 B6 F2 | z2 B,2 B,2 C2 | B,4 D4- | D4 z2 B2 | B2 A2 B4- | B2 F2 D3 E | (F2 G2) F4 | z4 F4- | %22
w: chan- ter,|quand cui- de|chan- ter,|* quand|cui- de chan\-|* ter me faut|tai\- * re.|Ain\-|
 F2 E2 D2 C2 | B,4 z2 (B,2- | B,CD)E F2 F2 | G2 F4 G2 | F4 z4 | z4 F4- | F2 E2 D2 C2 | %29
w: * si mène en|tout, ain\-|* * * si mène en|tout au re-|bours,|Ain\-|* si mène en|
 B,4 z2 (B,2- | B,C) (DE) F2 F2 | G2 F4 G2 | F8- | F8 |] %34
w: tout, ain\-|* * si * mène en|tout au re-|bours.||
V:3
 z4 F4 | F2 F2 B4 | z2 D2 F4 | D4 E2 D2 |[M:4/4] C8 | D4 E4 | D8 | z4 z2 D2 | D2 C2 B,2 B2 | %9
w: Tout|au re- bours,|tout au|re- bours de|mon|af- fai-|re,|comme|il ap- pert par|
 B2 A2 G4 | A2 F4 (G2 | A2 B2 G2) F2 | z4 z2 F2 | F2 E2 F4 | D4 B,2 C2 | (D3 E) F4 | z4 z2 B2 | %17
w: mes a- mours,|par mes a\-|* * * mours.|Quand|cui- de chan-|ter me faut|fai\- * re,|quand|
 B2 A2 B2 G2 | G2 (FE) (D2 B,2) | D2 D2 F4 | D2 D2 (D2 C2) | B,4 z4 | F2 F2 F2 F2 | B4 z2 (B,2 | %24
w: ciu- * de chan-|ter, quand * cui\- *|de chan- ter|me faut tai\- *|re.|Ain- si mène en|tout, ain\-|
 F2) F2 D4 | E2 D2 C4- | C4 D4 | E4 D4 | F4 F2 F2 | B4 z2 D2 | F2 F2 D4 | E2 D2 C4- | C4 D4 | D8 |] %34
w: * si mène|en- tout au|* re-|bours, ain-|si mène en|tout, ain\-|* si mène|en tout au|* re-|bours.|
V:4
 B4 B2 B2 | f6 e2 | d3 c B4 | F4 z2 F2 |[M:4/4][K:treble-8] A2 G2 c2 F2 | F2 B4 A2 | B4 z2 f2 | %7
w: Tout au re-|bours de|mon af- fai-|re, tout|au re- bours de|mon af- fai-|re, comme|
 f2 f2 d2 B2 | (d2 f4) e2 | f2 F2 B2 c2 | F2 c2 d2 e2 | f4 z2 f2 | e3 d c2 d2 | d2 B2 c4 | %14
w: il ap- pert par|mes * a-|mours, comme il ap-|pert par mes a-|mours, comme|il ap- pert par|mes a- mours.|
 z2 B2 B2 A2 | (B3 c d2) f2 | f2 g2 (f3 e) | f4 g4 | (e3 c) B2 G2 | (B2 c2) d2 B2 | (B3 c de) f2 | %21
w: Quand cui- de|chan\- * * ter|me faut tai\- *|re, quand|cui\- * de chan-|ter * me faut|tai\- * * * re.|
 (f2 e2 d2 c2) | d4 f4- | f2 e2 d3 c | B4 F4 | z2 F2 A2 G2 | c2 F4 B2- | B2 A2 B4 | z4 f4- | %29
w: Ain\- * * *|si mène|* en tout au|re- bours.|Ain- si mène|en tout au|* re- bours,|Ain\-|
 f2 e2 d3 c | (B4 F4) | z2 F2 A2 G2 | c2 F2 F2 F2 | F8 |] %34
w: * si mène en|tout *|tout au re-|bours, tout au re-|bours.|

